X: 5
T: If We Hadn't Any Women In The World
R: barndance
M: 4/4
L: 1/8
K: Gmaj
|: Bc |d3 B GABG | E2 E2 D4 | B/B/c dB AGAB | A3 B A2 Bc|
dedB GABG | E2 E2 D4 | B/B/c dB AGAB | G2 GF G2 :|
|: Bd |e3 f g2 fg | edd^c d2 Bd | edBd gdBG | A/B/A ^GB A2 Bd |
e3 f g2 fg | edd^c d2 Bd | ed B/c/d gdBG | A/B/A GF G2 Bd |
e3 f g2 fg | edd^c d2 Bd | edBd gdBG | A/B/A ^GB A2 Bc |
d3 B GABG | E2 E2 D4 | B/B/c dB AGAB |G2 GF G2 |]


Tune 1376	Setting 14739

